# MMLovania (Megalovania in MML)
# Author: Ong Yong Xin

o4 t240 l8

@track background {
  @loop 5 {
    @lyrics sine {
      dd>d4<a4rg+4g4f4dfg
      cc>d4<a4rg+4g4f4dfg
      <bb>>d4<a4rg+4g4f4dfg
      <b-b->>d4<a4rg+4g4f4dfg
    }
  }
}
