# MMLovania (Megalovania in MML)
# Author: Ong Yong Xin

o4 l8

@track background {
  rrrr
  @lyrics 繧 {
      dd>d4<a4rg+4g4f4dfg
      cc>d4<a4rg+4g4f4dfg
      <bb>>d4<a4rg+4g4f4dfg
      <b-b->>d4<a4rg+4g4f4dfg
  }
}
