# MMLovania (Megalovania in MML)
# Author: Ong Yong Xin

o4 t480

d d > d2 < a2 r g#2 g2 f2 d f g
c c > d2 < a2 r g#2 g2 f2 d f g
< b b > > d2 < a2 r g#2 g2 f2 d f g
< bb bb > > d2 < a2 r g#2 g2 f2 d f g
